icons/evolvere-blue-folders-flat-vivid-dark-fallback/actions/64/documentinfo.svg

<?xml version="1.0" encoding="UTF-8" standalone="no"?>
<!-- Created with Inkscape (http://www.inkscape.org/) -->

<svg
   xmlns:dc="http://purl.org/dc/elements/1.1/"
   xmlns:cc="http://creativecommons.org/ns#"
   xmlns:rdf="http://www.w3.org/1999/02/22-rdf-syntax-ns#"
   xmlns:svg="http://www.w3.org/2000/svg"
   xmlns="http://www.w3.org/2000/svg"
   xmlns:sodipodi="http://sodipodi.sourceforge.net/DTD/sodipodi-0.dtd"
   xmlns:inkscape="http://www.inkscape.org/namespaces/inkscape"
   width="64"
   height="64"
   id="svg13094"
   version="1.1"
   inkscape:version="0.91+devel r"
   sodipodi:docname="documentinfo.svg">
  <sodipodi:namedview
     id="base"
     pagecolor="#ffffff"
     bordercolor="#666666"
     borderopacity="1.0"
     inkscape:pageopacity="0"
     inkscape:pageshadow="2"
     inkscape:zoom="11.313709"
     inkscape:cx="37.142727"
     inkscape:cy="34.828541"
     inkscape:document-units="px"
     inkscape:current-layer="svg13094"
     showgrid="true"
     inkscape:snap-bbox="true"
     inkscape:bbox-paths="true"
     inkscape:bbox-nodes="true"
     inkscape:snap-bbox-edge-midpoints="true"
     inkscape:snap-bbox-midpoints="true"
     inkscape:object-paths="true"
     inkscape:snap-intersection-paths="true"
     inkscape:object-nodes="true"
     inkscape:snap-smooth-nodes="true"
     inkscape:snap-midpoints="true"
     inkscape:snap-object-midpoints="true"
     inkscape:snap-center="true"
     showguides="true"
     inkscape:guide-bbox="true"
     inkscape:window-width="1920"
     inkscape:window-height="1023"
     inkscape:window-x="-10"
     inkscape:window-y="35"
     inkscape:window-maximized="1"
     inkscape:snap-global="true"
     fit-margin-top="0"
     fit-margin-left="0"
     fit-margin-right="0"
     fit-margin-bottom="0"
     showborder="true"
     inkscape:showpageshadow="false"
     inkscape:snap-page="true">
    <inkscape:grid
       type="xygrid"
       id="grid3075"
       empspacing="5"
       visible="true"
       enabled="true"
       snapvisiblegridlinesonly="true"
       originx="0px"
       originy="18px" />
  </sodipodi:namedview>
  <defs
     id="defs13096" />
  <metadata
     id="metadata13099">
    <rdf:RDF>
      <cc:Work
         rdf:about="">
        <dc:format>image/svg+xml</dc:format>
        <dc:type
           rdf:resource="http://purl.org/dc/dcmitype/StillImage" />
        <dc:title></dc:title>
      </cc:Work>
    </rdf:RDF>
  </metadata>
  <path
     inkscape:connector-curvature="0"
     style="color:#000000;fill:#1b7dd0;fill-opacity:1;fill-rule:nonzero;stroke:none;stroke-width:2.28571415;marker:none;visibility:visible;display:inline;overflow:visible;enable-background:accumulate"
     d="m 0,4 0,30 0,28 2,2 30,0 30,0 2,-2 L 64,34 64,4 32,4 0,4 z"
     id="path3443" />
  <path
     inkscape:connector-curvature="0"
     style="color:#000000;fill:#4ccaff;fill-opacity:1;fill-rule:nonzero;stroke:none;stroke-width:2.28571415;marker:none;visibility:visible;display:inline;overflow:visible;enable-background:accumulate"
     d="M 2,0 0,1 0,4 32,4 64,4 64,1 62,0 32,0 2,0 z"
     id="path3447" />
  <path
     style="fill:#7ce4ff;fill-opacity:1;fill-rule:nonzero"
     d="M 0,3 0,6 2,4 Z"
     id="path4298"
     inkscape:connector-curvature="0"
     sodipodi:nodetypes="cccc" />
  <path
     d="M 64,6 62,4 64,3 z"
     id="path3028"
     style="fill:#199ae5;fill-opacity:1"
     inkscape:connector-curvature="0" />
  <g
     id="g3043"
     inkscape:export-filename="folder.png"
     inkscape:export-xdpi="90"
     inkscape:export-ydpi="90"
     transform="translate(-0.625,0.082283)" />
  <g
     id="scalable"
     transform="matrix(1.0385892,0,0,1.0385892,1214.7222,1878.8121)"
     inkscape:label="#g3701"
     style="fill:#ffffff" />
  <path
     inkscape:connector-curvature="0"
     style="font-size:medium;font-style:normal;font-variant:normal;font-weight:normal;font-stretch:normal;text-indent:0;text-align:start;text-decoration:none;line-height:normal;letter-spacing:normal;word-spacing:normal;text-transform:none;direction:ltr;block-progression:tb;writing-mode:lr-tb;text-anchor:start;baseline-shift:baseline;color:#000000;fill:#dfeaed;fill-opacity:0.93291593;stroke:none;stroke-width:2.28571415;marker:none;visibility:visible;display:inline;overflow:visible;enable-background:accumulate;font-family:Sans;-inkscape-font-specification:Sans"
     d="M 32,15 C 21.534529,15 13,23.534257 13,34 13,44.465471 21.534529,53 32,53 42.465444,53 51,44.465471 51,34 51,23.534257 42.465444,15 32,15 z m -2,8 4,0 c 0.554,0 1,0.446 1,1 l 0,4 c 0,0.554 -0.446,1 -1,1 l -4,0 c -0.554,0 -1,-0.446 -1,-1 l 0,-4 c 0,-0.554 0.446,-1 1,-1 z m 0,11 4,0 c 0.554,0 1,0.446 1,1 l 0,9 c 0,0.554 -0.446,1 -1,1 l -4,0 c -0.554,0 -1,-0.446 -1,-1 l 0,-9 c 0,-0.554 0.446,-1 1,-1 z"
     id="path5766" />
  <path
     style="font-size:medium;font-style:normal;font-variant:normal;font-weight:normal;font-stretch:normal;text-indent:0;text-align:start;text-decoration:none;line-height:normal;letter-spacing:normal;word-spacing:normal;text-transform:none;direction:ltr;block-progression:tb;writing-mode:lr-tb;text-anchor:start;baseline-shift:baseline;color:#000000;fill:#00256a;fill-opacity:0.177102;stroke:none;stroke-width:1;marker:none;visibility:visible;display:inline;overflow:visible;enable-background:accumulate;font-family:Sans;-inkscape-font-specification:Sans;fill-rule:nonzero;opacity:1;stroke-linecap:butt;stroke-linejoin:miter;stroke-miterlimit:4;stroke-dasharray:none;stroke-dashoffset:0;stroke-opacity:1"
     d="M 45.90625 21.09375 C 49.060322 24.487848 51 29.019349 51 34 C 51 44.465471 42.465444 53 32 53 C 27.019479 53 22.487877 51.060319 19.09375 47.90625 C 22.567264 51.644135 27.51505 54 33 54 C 43.465444 54 52 45.465471 52 35 C 52 29.514908 49.644138 24.567225 45.90625 21.09375 z M 30 23 C 29.446 23 29 23.446 29 24 L 29 28 C 29 28.554 29.446 29 30 29 L 30 25 C 30 24.446 30.446 24 31 24 L 35 24 C 35 23.446 34.554 23 34 23 L 30 23 z M 30 34 C 29.446 34 29 34.446 29 35 L 29 44 C 29 44.554 29.446 45 30 45 L 30 36 C 30 35.446 30.446 35 31 35 L 35 35 C 35 34.446 34.554 34 34 34 L 30 34 z "
     id="path3010" />
</svg>

<svg xmlns="http://www.w3.org/2000/svg" viewBox="0 0 64 64"><g color="#000"><path d="m0 4v30 28l2 2h30 30l2-2v-28-30h-32-32" fill="#1b7dd0"/><path d="m2 0l-2 1v3h32 32v-3l-2-1h-30-30" fill="#4ccaff"/></g><path d="m0 3v3l2-2" fill="#7ce4ff"/><path d="m64 6l-2-2 2-1z" fill="#199ae5"/><g color="#000"><path d="m32 15c-10.465 0-19 8.534-19 19 0 10.465 8.535 19 19 19 10.465 0 19-8.535 19-19 0-10.466-8.535-19-19-19m-2 8h4c.554 0 1 .446 1 1v4c0 .554-.446 1-1 1h-4c-.554 0-1-.446-1-1v-4c0-.554.446-1 1-1m0 11h4c.554 0 1 .446 1 1v9c0 .554-.446 1-1 1h-4c-.554 0-1-.446-1-1v-9c0-.554.446-1 1-1" fill-opacity=".933" fill="#dfeaed"/><path d="m45.906 21.09c3.154 3.394 5.094 7.926 5.094 12.906 0 10.465-8.535 19-19 19-4.981 0-9.512-1.94-12.906-5.094 3.474 3.738 8.421 6.094 13.906 6.094 10.465 0 19-8.535 19-19 0-5.485-2.356-10.433-6.094-13.906m-15.906 1.906c-.554 0-1 .446-1 1v4c0 .554.446 1 1 1v-4c0-.554.446-1 1-1h4c0-.554-.446-1-1-1h-4m0 11c-.554 0-1 .446-1 1v9c0 .554.446 1 1 1v-9c0-.554.446-1 1-1h4c0-.554-.446-1-1-1h-4" fill-opacity=".177" fill="#00256a"/></g></svg>
